assets/compare/virtualCard.svg

<svg width="28" height="29" viewBox="0 0 28 29" fill="none" xmlns="http://www.w3.org/2000/svg">
<path d="M23.333 10.2335V6.73348H4.66634V10.2335H23.333ZM23.333 12.5668H4.66634V23.0668H23.333V12.5668ZM3.49967 4.40015H24.4997C24.8091 4.40015 25.1058 4.52306 25.3246 4.74186C25.5434 4.96065 25.6663 5.25739 25.6663 5.56681V24.2335C25.6663 24.5429 25.5434 24.8396 25.3246 25.0584C25.1058 25.2772 24.8091 25.4001 24.4997 25.4001H3.49967C3.19026 25.4001 2.89351 25.2772 2.67472 25.0584C2.45592 24.8396 2.33301 24.5429 2.33301 24.2335V5.56681C2.33301 5.25739 2.45592 4.96065 2.67472 4.74186C2.89351 4.52306 3.19026 4.40015 3.49967 4.40015V4.40015ZM12.833 17.2335H19.833V19.5668H7.58301L12.833 14.3168V17.2335Z" fill="#5BB5A2"/>
</svg>

<svg xmlns="http://www.w3.org/2000/svg" width="28" height="29" fill="none"><path fill="#5BB5A2" d="M23.333 10.233v-3.5H4.666v3.5h18.667Zm0 2.334H4.666v10.5h18.667v-10.5ZM3.5 4.4h21a1.167 1.167 0 0 1 1.166 1.167v18.666A1.167 1.167 0 0 1 24.5 25.4h-21a1.167 1.167 0 0 1-1.167-1.166V5.566A1.167 1.167 0 0 1 3.5 4.4Zm9.333 12.833h7v2.334H7.583l5.25-5.25v2.916Z"/></svg>
